X:44
T:Buttermilk in the Fiddle Case
C:François Champs
N:02.07.2011
M:4/4
L:1/8
R:Reel
K:C
|: DG_Bd c2cA | _BGGG DGDC | _B,2A,B, G,A,B,G, | G,GFG DC_B,G,
|  A,A,A,^C EEEA, | B,^C^FE D2D^F | ADGF Ddcd |1 _BBBA ^FGA^F :|2 _BBBA D2E^F
|: GGGB dDAG | F2CF A,FCF | G,A,CF B,^C^FE | DDD^F ADG=F
|  Ddcd _BBBA | FGD_B, G,2A,_B,| GFDC D_B,DF |1 ECEG ^FDE^F :|2 ECGE ^FGA^F
